public/assets/routes_avatar/invoiceSupplement.svg

<?xml version="1.0" encoding="UTF-8"?>
<svg width="60px" height="60px" viewBox="0 0 60 60" version="1.1" xmlns="http://www.w3.org/2000/svg" xmlns:xlink="http://www.w3.org/1999/xlink">
    <!-- Generator: Sketch 52.3 (67297) - http://www.bohemiancoding.com/sketch -->
    <title>uninvoicedSalesInvoiceReport</title>
    <desc>Created with Sketch.</desc>
    <g id="icon" stroke="none" stroke-width="1" fill="none" fill-rule="evenodd">
        <g id="uninvoicedSalesInvoiceReport">
            <circle id="Oval-Copy" fill="#49A7FF" cx="30" cy="30" r="30"></circle>
            <g id="分组-4" transform="translate(16.000000, 15.000000)">
                <rect id="Rectangle-15" stroke="#FFFFFF" stroke-width="1.5" fill="#49A7FF" x="4.625" y="0.75" width="22.71875" height="24.6818182" rx="1.92"></rect>
                <rect id="Rectangle-15-Copy" stroke="#FFFFFF" stroke-width="1.5" fill="#49A7FF" x="0.75" y="4.62878788" width="22.71875" height="24.6818182" rx="1.92"></rect>
                <rect id="Rectangle-16" fill="#FFFFFF" x="3.875" y="7.72727273" width="15" height="1.5" rx="0.75"></rect>
                <rect id="Rectangle-16-Copy" fill="#FFFFFF" x="3.875" y="12.5757576" width="13" height="1.5" rx="0.75"></rect>
                <rect id="Rectangle-16-Copy-3" fill="#FFFFFF" x="3.875" y="17.4242424" width="10" height="1.5" rx="0.75"></rect>
                <polygon id="Rectangle-29" fill="#49A7FF" points="13 21 29 21 29 31 13 31"></polygon>
                <path d="M15,22.5 C14.7238576,22.5 14.5,22.7238576 14.5,23 L14.5,29 C14.5,29.2761424 14.7238576,29.5 15,29.5 L27,29.5 C27.2761424,29.5 27.5,29.2761424 27.5,29 L27.5,23 C27.5,22.7238576 27.2761424,22.5 27,22.5 L15,22.5 Z" id="Rectangle-29" stroke="#FFFFFF" fill="#49A7FF"></path>
                <path d="M17.748431,26.3552207 C17.5648536,26.5188375 17.3671548,26.6781485 17.1506276,26.8331539 L17,26.3767492 C17.6354603,25.9203445 18.0685146,25.4725511 18.2944561,25.0419806 L17.1270921,25.0419806 L17.1270921,24.6329386 L17.8002092,24.6329386 C17.7248954,24.4564047 17.6448745,24.2841765 17.5554393,24.116254 L18.0308577,24 C18.1391213,24.2325081 18.2238494,24.4434876 18.289749,24.6329386 L18.7839958,24.6329386 L18.7839958,24.9989236 C18.6616109,25.2960172 18.4780335,25.5888052 18.2285565,25.8729817 L18.2285565,25.8902045 L18.4262552,26.0107643 C18.5627615,25.9203445 18.6945607,25.795479 18.8263598,25.6318622 L19.1040795,25.8858988 C18.9911088,26.0236814 18.8687238,26.1399354 18.7369247,26.2303552 C18.8593096,26.320775 18.9769874,26.4155005 19.0899582,26.5145318 L18.8216527,26.9020452 C18.623954,26.6738428 18.4262552,26.4757804 18.2285565,26.3121636 L18.2285565,28 L17.748431,28 L17.748431,26.3552207 Z M19.6171548,24.0172228 L20.1019874,24.0172228 L20.1019874,25.4251884 C20.5209205,25.6663079 20.9492678,25.9375673 21.3823222,26.247578 L21.0904812,26.6437029 C20.6997908,26.3250807 20.3702929,26.0710441 20.1019874,25.8902045 L20.1019874,27.9956943 L19.6171548,27.9956943 L19.6171548,24.0172228 Z M22.0366109,24.2282024 L25.7646444,24.2282024 L25.7646444,24.6630786 L25.0256276,24.6630786 L25.0256276,25.6533907 L26,25.6533907 L26,26.088267 L25.0256276,26.088267 L25.0256276,27.9354144 L24.5313808,27.9354144 L24.5313808,26.088267 L23.3122385,26.088267 C23.2651674,26.510226 23.1710251,26.8675996 23.0345188,27.1560818 C22.8509414,27.517761 22.5496862,27.7976319 22.1307531,27.9913886 L21.8624477,27.6081808 C22.2437238,27.4058127 22.4979079,27.1517761 22.6297071,26.8503767 C22.7144351,26.6350915 22.7756276,26.3810549 22.8132845,26.088267 L21.7965481,26.088267 L21.7965481,25.6533907 L22.8462343,25.6533907 C22.8462343,25.6275565 22.8509414,25.606028 22.8509414,25.5801938 L22.8509414,24.6630786 L22.0366109,24.6630786 L22.0366109,24.2282024 Z M23.3498954,24.6630786 L23.3498954,25.5801938 C23.3498954,25.606028 23.3451883,25.6275565 23.3451883,25.6533907 L24.5313808,25.6533907 L24.5313808,24.6630786 L23.3498954,24.6630786 Z" id="补开" fill="#FFFFFF"></path>
                <polygon id="￥" fill="#FFFFFF" points="5 21 6.33664164 21 7.758 23.6491373 9.17935836 21 10.516 21 8.7087099 24.0627899 9.91356997 24.0627899 9.91356997 24.6436639 8.36043003 24.6436639 8.35101706 24.652465 8.35101706 25.382958 9.91356997 25.382958 9.91356997 25.9638319 8.35101706 25.9638319 8.35101706 27.284 7.16498294 27.284 7.16498294 25.9638319 5.611843 25.9638319 5.611843 25.382958 7.16498294 25.382958 7.16498294 24.652465 7.15556997 24.6436639 5.611843 24.6436639 5.611843 24.0627899 6.8072901 24.0627899"></polygon>
            </g>
        </g>
    </g>
</svg>

<svg width="60" height="60" xmlns="http://www.w3.org/2000/svg"><g fill="none" fill-rule="evenodd"><circle fill="#49A7FF" cx="30" cy="30" r="30"/><g transform="translate(16 15)"><rect stroke="#FFF" stroke-width="1.5" fill="#49A7FF" x="4.625" y=".75" width="22.719" height="24.682" rx="1.92"/><rect stroke="#FFF" stroke-width="1.5" fill="#49A7FF" x=".75" y="4.629" width="22.719" height="24.682" rx="1.92"/><rect fill="#FFF" x="3.875" y="7.727" width="15" height="1.5" rx=".75"/><rect fill="#FFF" x="3.875" y="12.576" width="13" height="1.5" rx=".75"/><rect fill="#FFF" x="3.875" y="17.424" width="10" height="1.5" rx=".75"/><path fill="#49A7FF" d="M13 21h16v10H13z"/><path d="M15 22.5a.5.5 0 0 0-.5.5v6a.5.5 0 0 0 .5.5h12a.5.5 0 0 0 .5-.5v-6a.5.5 0 0 0-.5-.5H15z" stroke="#FFF" fill="#49A7FF"/><path d="M17.748 26.355a7.154 7.154 0 0 1-.597.478L17 26.377c.635-.457 1.069-.904 1.294-1.335h-1.167v-.41h.673a6.627 6.627 0 0 0-.245-.516l.476-.116c.108.233.193.443.259.633h.494v.366c-.122.297-.306.59-.555.874v.017l.197.12c.137-.09.269-.215.4-.378l.278.254a1.789 1.789 0 0 1-.367.344c.122.09.24.186.353.285l-.268.387a5.094 5.094 0 0 0-.593-.59V28h-.48v-1.645zm1.87-2.338h.484v1.408c.419.241.847.513 1.28.823l-.292.396c-.39-.319-.72-.573-.988-.754v2.106h-.485v-3.979zm2.419.211h3.728v.435h-.74v.99H26v.435h-.974v1.847h-.495v-1.847h-1.219c-.047.422-.141.78-.277 1.068-.184.362-.485.642-.904.835l-.269-.383c.382-.202.636-.456.768-.758.084-.215.146-.469.183-.762h-1.016v-.435h1.05c0-.025.004-.047.004-.073v-.917h-.814v-.435zm1.313.435v.917c0 .026-.005.048-.005.073h1.186v-.99H23.35zM5 21h1.337l1.421 2.65L9.179 21h1.337l-1.807 3.063h1.205v.58H8.36l-.009.01v.73h1.563v.58H8.35v1.321H7.165v-1.32H5.612v-.581h1.553v-.73l-.01-.01H5.613v-.58h1.195z" fill="#FFF"/></g></g></svg>
